newicons/dictionary_en_th.svg

<?xml version="1.0" encoding="UTF-8"?><svg id="a" xmlns="http://www.w3.org/2000/svg" viewBox="0 0 48 48"><defs><style>.b{fill:none;stroke:#fff;stroke-linecap:round;stroke-linejoin:round;}</style></defs><path class="b" d="M27.342,30.985h5.3M32.642,27v8M27.342,27v8M22.382,35v-8M19.732,27h5.3M24.416,21h-4v-8h4M20.416,17h2.608M26.658,21v-8l5.3,8v-8M12.73,4.5v39h24.87c1.1046,0,2-.8954,2-2V6.5c0-1.1046-.8954-2-2-2H12.73ZM8.4,6.5v35c0,1.1046.8954,2,2,2h2.33V4.5h-2.33c-1.1046,0-2,.8954-2,2"/></svg>

<svg xmlns="http://www.w3.org/2000/svg" viewBox="0 0 48 48"><path fill="none" stroke="#fff" stroke-linecap="round" stroke-linejoin="round" d="M27.342 30.985h5.3m0-3.985v8m-5.3-8v8m-4.96 0v-8m-2.65 0h5.3m-.616-6h-4v-8h4m-4 4h2.608m3.634 4v-8l5.3 8v-8M12.73 4.5v39H37.6a2 2 0 0 0 2-2v-35a2 2 0 0 0-2-2zm-4.33 2v35a2 2 0 0 0 2 2h2.33v-39H10.4a2 2 0 0 0-2 2" class="t"/></svg>
